X:1452
T:Miss Wallace
M:C|
L:1/8
N:"collected by Mahony"
B:O'Neill's 1452
Z:"Transcribed by Bob Safranek, rjs@gsp.org"
K:G
"   Sign"D2|GBAF    G2 AF|D2 3FED   ADFD|DGGF     GABc|dcde fdcA|
GBAF    GBAF|D2 3FED   ADGF|DGAGF  GABc|dfeg fdcA||
dgagf gbag|fd 3.d.d.d fdcA|dgagf   g2 fg|agbg agagf|
dgagf gbag|fgef         defg|3agf ge fdec|dfeg fdc"   Sign"A|]
